X: 1
T: The Merry Sisters Of Fate
R: reel
M: 4/4
L: 1/8
K: Ador
|:eA(3AAA egfd|eA(3AAA gdBd|eA(3AAA egfd|BG(3GGG DGBd:|
|eaaf g2 fg|eaag edBd|eaaf g2 fg|egde gdBG|
|eaaf g2 fg|egab c'bag|eaaf g2 fg|egde gdBG||
|AGfg egdg|eA(3AAA eA~B2|egfg egde|BG(3GGG DGBd|
egfg egdg|eA(3AAA eA~B2|DGBd ~g3a|(3bag (3agf g2 fg||


Tune 623	Setting 23461

